X: 416
T: Zanerren changqu yiduidui
%%abc-version 2.0
%%abcx-abcm2ps-target-version 5.9.1 (29 Sep 2008)
%%abc-creator hum2abc beta
%%abcx-conversion-date 2013/10/02 07:52:30
%%abc-edited-by Helmut Schaffrath
%%humdrum-veritas 2607670769
%%humdrum-veritas-data 828031775
%%continueall 1
%%barnumbers 0
L: 1/16
M: 2/4
K: Db
B2 A2 B e d B [I:setbarnb 1]| 
A2 A d B2 A F | 
E2 D2 E> d G F | 
E8 | 
B2 A2 B e d B | 
A2 A d B2 A F | 
E2 D2 E> B A F | 
A8 |]  



